X: 691
T: Wainiutizi
%%abc-version 2.0
%%abcx-abcm2ps-target-version 5.9.1 (29 Sep 2008)
%%abc-creator hum2abc beta
%%abcx-conversion-date 2013/10/02 07:52:30
%%abc-edited-by Helmut Schaffrath
%%humdrum-veritas 2043639177
%%humdrum-veritas-data 3127008796
%%continueall 1
%%barnumbers 0
L: 1/8
M: 2/4
K: D
z A F A [I:setbarnb 1]| 
A Bd2 | 
d B f e/ f/ | 
d BA2 | 
d Ad2 | 
B A B A | 
A E F E | 
D4 | 
B AB2 | 
B2B c | 
d c B A | 
F E/ F/A2 | 
e d e d | 
BA2F | 
F A B A | 
FE2E | 
D4 |]  



